X:1
T:Susanna fair
T:William Byrd (c.1540-1623)
T:Susanna fair
T:© Choral Public Domain Library 2010
T:© Choral Public Domain Library 2010
T:© Choral Public Domain Library 2010
T:© Choral Public Domain Library 2010
C:William Byrd (c.1540-1623)
Z:© Choral Public Domain Library 2010
%%score [ 1 2 3 ]
L:1/8
M:4/4
K:C
V:1 treble nm="Soprano" snm="S."
V:2 treble nm="Alto" snm="A."
V:3 treble-8 transpose=-12 nm="Tenor" snm="T."
V:1
 [Ce]2 |[M:4/2] D4 G6 G2 G4 | z2 G4 A4 c2 B4 | A4 G4 z2 D2 E2 ^F2 | G4 A4 c2 B4 A2- | %5
w: |Su- san- na fair|some time as- sault-|ed was, by two old|men, de- sir- ing their|
 A2 c2 G4 d2 c2 A4 | B4 z2 B2 d2 A2 c4 | B2 A4 D2 G4 F4 | E4 z4 z4 z2 G2 | F2 D2 E2 ^F2 G6 G2 | %10
w: _ de- light, their de- *|light, which lewd in- tent,|they thought to bring to|pass, if|not by ten- der love, by|
 F4 E4 D4 z2 c2 | B2 G2 A2 B2 c4 z2 c2 | B2 G2 A2 B2 c4 A4 | G6 ^FE F4 z2 A2 | %14
w: ten- der love, if|not by ten- der love, if|not by ten- der love, by|force and _ might, to|
 A2 B2 A4 z2 d2 d2 e2 | d4 c2 B4 A2 B2 c2- | c2 B2 A4 z2 B2 B2 B2 | c3 B A4 G4 z2 c2 | %18
w: whom she said, to whom she|said, if I your suit de-|* * ny, you will me|false- ly ac- cuse and|
 B4 A4 G4 z4 | z2 F2 E4 D4 C4- | C4 z2 G2 F4 D4 | !fermata!E16 || G4 c3 B A4 z2 G2 | %23
w: make me die,|and make me die,|_ and make me|die.|And if I grant to|
 AB c4 B2 c4 z2 c2 | B4 A4 G2 D2 G2 C2 | F3 G E4 z4 z2 E2 | G2 D2 F3 G E4 z4 | z2 c2 B4 A4 G2 B2 | %28
w: that which you re- quest, my|cha- sti- ty, shall then de-|flower- ed be, shall|then de- flower- ed be,|my cha- sti- ty shall|
 d2 G2 c3 d B4 z2 B2 | B2 A2 B2 c2 A4 z2 B2 | c4 A4 G8 | z2 D2 G4 z2 G2 d4 | c4 B6 A2 B2 c2 | %33
w: then de- flower- ed be, which|is so dear to me, that|I de- test,|my life, my life,|if it be- reft- ed|
 B2 A4 G4 ^FE F4 | G8 z2 G2 ^F3 G | A2 B2 A4 z2 d2 B3 c | d2 e2 d4 A2 c4 B2 | A4 z2 G2 c4 B4 | %38
w: be from me, from _ _|me, and ra- ther|would I die, and ra- ther|would I die of mine ac-|cord, of mine ac-|
 A8 z2 G4 d2- | d2 c2 B4 z2 G2 d4 | c4 B2 G2 A2 B2 c2 A2 | c3 G B4 A2 G4 C2 | D4 E4 F4 D4 | %43
w: cord, ten thou-|* sand times, ten thou-|sand times than once of- fend our|Lord, of- fend our Lord, than|once of- fend our|
 !fermata!E16 |] %44
w: Lord.|
V:2
 [G,B]2 |[M:4/2] z4 D4 E6 E2 | E4 z4 C4 D4 | F4 E4 D4 C4 | z2 B,2 C2 D2 E4 D4 | F2 E4 D4 E2 ^F4 | %6
w: |Su- san- na|fair, some time|as- sault- ed was,|by two old men, de-|sir- ing their de- *|
 G4 D4 F4 E4 | D4 z4 z2 B,2 D2 A,2 | C2 E2 G2 D2 F4 E4 | D4 A,4 B,2 E2 D4 | z4 z2 G2 F2 D2 E2 ^F2 | %11
w: light, which lewd in-|tent, which lewd in-|tent, which lewd in- tent they|thought to bring to pass,|if not by ten- der|
 G4 z4 z2 F2 E2 C2 | D2 E2 F4 z2 E4 D2- | D2 ^CB, C4 D4 z2 ^F2 | ^F2 G2 F8 z2 G2 | %15
w: love, if not by|ten- der love, by force|_ and _ _ might, to|whom she said, if|
 B4 A2 G4 ^F2 G2 A2 | ^F2 G4 F2 G4 z2 E2 | E2 E2 F4 E4 C4 | D4 z2 F2 E4 D4 | C6 B,A, B,4 C2 A,2- | %20
w: I your suit de- ny, your|suit de- * ny, you|will me false- ly ac-|cuse, and make me|die, me _ _ die and|
 A,2 C3 D E2 A,2 C4 B,2 | !fermata!C16 || z8 z4 C4 | F3 E D2 D2 EF G4 ^F2 | G4 z4 z2 F2 E4 | %25
w: _ make me _ die, make me|die.|And|if I grant to that which you re-|quest, my cha-|
 D4 C2 A,2 D2 G,2 C3 D | B,4 z4 z2 C2 B,4 | A,4 G,2 D2 F2 C2 E3 F | D2 E2 E2 ^F2 G4 z2 G2 | %29
w: sti- ty shall then de- flower- ed|be, my cha-|sti- ty shall then de- flower- ed|be, de- flower- ed be, which|
 G2 ^F2 G2 E2 F2 D2 G4 | z4 z2 D2 E4 C4 | B,4 z2 B,2 E4 D2 G2- | G2 ^F2 G2 E2 D6 C2 | %33
w: is so dear to me, to me,|that I de-|test, my life, my life,|_ if it be- reft- ed|
 D4 B,4 A,4 A,4 | G,8 z8 | z2 G2 ^F3 G A2 B2 G4 | z2 C2 B,3 C D2 E2 D4 | A,2 C4 B,2 A,4 z2 D2 | %38
w: be from me, from|me,|and ra- ther would I die,|and ra- ther would I die|of mine ac- cord, of|
 F4 E4 D4 z2 G,2- | G,2 E4 D2 B,4 z2 D2 | F2 E2 D4 D2 G4 F2 | E2 C2 D2 E2 F2 D2 E4 | %42
w: mine ac- cord, ten|_ thou- sand times, ten|thou- sand times, ten thou- sand|times than once of- fend our Lord,|
 z2 G,2 C2 E2 D2 C4 B,2 | !fermata!C16 |] %44
w: than once of- fend our _|Lord.|
V:3
 [Ce]2 |[M:4/2] z4 G4 c6 c2 | c4 c4 A4 G4 | F4 C2 c4 B2 c2 A2 | G4 F4 E4 z4 | A4 c2 B4 A4 d2 | %6
w: |Su- san- na|fair some time, some|time as- sault- ed was by|two old men,|de- sir- ing their de-|
 G8 z4 z2 E2 | G2 D2 F4 E4 D4 | C2 c4 B2 A2 d4 c2- | c2 B2 c4 z2 c2 B2 G2 | A2 B2 c4 z2 B2 c2 A2 | %11
w: light, which|lewd in- tent they thought|to bring to pass, to bring|_ to pass, if not by|ten- der love, by force and|
 G4 d4 A3 B c4 | G4 z2 D2 A4 F4 | E8 D4 z2 d2 | d2 G2 d4 d2 B4 c2 | G4 z2 e2 d3 c B2 A2 | %16
w: might, by force and _|might, by force and|_ might, to|whom she said, to whom she|said, if I your suit de-|
 d4 D4 G8 | z2 A2 A2 A2 c3 B A4 | G4 z4 z2 c2 B4 | A4 G8 z4 | F4 E4 D8 | !fermata!C16 || z16 | %23
w: ny, de- ny,|you will me false- ly ac-|cuse, and make|me die,|and make me|die.||
 z4 G4 c3 B A4 | z2 G2 AB c4 B2 c4 | z4 z2 c2 B4 A4 | G4 z2 A2 c2 C2 EF G2- | %27
w: And if I grant|to that which you re- quest,|my cha- sti-|ty shall then de- flower- * *|
 G2 ^F2 G4 z2 A2 c2 G2 | B3 c A4 z2 G2 G2 E2 | G2 D2 G2 A2 d4 z2 G2 | A4 F4 E4 z2 C2 | %31
w: * ed be, shall then de-|flower- ed be, which is so|dear to me, to me, that|I de- test my|
 G4 z2 G2 c4 B4 | A4 G2 G4 ^F2 G2 E2 | D16 | z2 d2 B3 c d2 e2 d4- | d2 G2 d6 G2 G4 | %36
w: life, my life, if|it be- reft- ed be from|me,|and ra- ther would I die|_ of mine ac- cord,|
 z2 E2 G4 F2 E2 G2 D2 | F6 G4 ^F2 G4 | D2 d4 c2 B4 c2 B2- | BG A2 G8 z4 | z2 C2 G4 F2 E4 D2 | %41
w: of mine ac- * cord, of|mine ac- * cord,|ten thou- sand times, ten thou-|* sand _ times,|ten thou- sand times than|
 C4 z2 G2 A2 B2 c2 A2 | B4 c4 F4 G4 | !fermata!C16 |] %44
w: once, than once of- fend our|Lord, of- fend our|Lord.|

